assets/1. F-P/Infinity/Color/Infinity-color.svg

<svg width="100%" height="100%" viewBox="0 0 32 32" fill="none" xmlns="http://www.w3.org/2000/svg">
<g filter="url(#filter0_i_18590_1754)">
<path d="M23.4846 9.20991C21.1446 9.08991 19.0646 10.0899 17.7046 11.7399C17.7046 11.7399 16.1746 13.7199 16.1746 13.7099C16.1746 13.7099 14.2446 16.2399 14.2546 16.2399L12.5946 18.4199L12.4646 18.5899C11.5146 19.8599 9.83463 20.5699 8.06463 20.0499C6.72463 19.6499 5.67463 18.5299 5.37463 17.1699C4.78463 14.5799 6.75463 12.2699 9.24463 12.2699C10.4546 12.2699 11.3546 12.7799 11.9746 13.3199C12.6346 13.8999 13.6446 13.8099 14.1846 13.1099C14.6546 12.4999 14.5946 11.6199 14.0346 11.0999C10.8746 8.19991 4.89463 8.85991 2.98463 12.8899C0.504634 18.1199 4.28463 23.2799 9.24463 23.2799C11.4246 23.2799 13.3746 22.3099 14.6646 20.7499L15.0946 20.1899C15.0946 20.1899 16.1846 18.7599 16.1846 18.7699C16.1846 18.7699 18.1146 16.2399 18.1046 16.2399L19.7946 14.0299C19.8346 13.9799 19.8746 13.9299 19.9146 13.8799C20.7846 12.6999 22.2846 12.0299 23.9346 12.3499C25.3946 12.6399 26.6046 13.7799 26.9646 15.2299C27.6246 17.8599 25.6446 20.2299 23.1146 20.2299C21.9246 20.2299 21.0246 19.7199 20.4046 19.1699C19.7446 18.5899 18.7246 18.6899 18.1946 19.3899C17.7046 20.0299 17.7946 20.9199 18.3946 21.4599C19.3246 22.2899 20.9146 23.2999 23.1146 23.2999C27.3146 23.2999 30.6646 19.6099 30.0946 15.2999C29.6546 11.9799 26.8146 9.37991 23.4846 9.20991Z" fill="url(#paint0_linear_18590_1754)"/>
</g>
<g filter="url(#filter1_f_18590_1754)">
<path d="M12.8923 12.0254C11.5521 10.8116 9.64023 10.1238 6.84853 11.2162C3.3589 12.5817 3.03021 17.0576 4.49688 19.384C5.96354 21.7105 10.2624 23.3289 13.7015 19.384C16.4527 16.2282 18.2869 13.8208 18.8601 13.0116C19.7704 11.781 22.37 9.66356 25.4854 11.0392C29.3796 12.7587 28.9412 17.6612 27.6601 19.384C26.1934 21.3564 22.6531 23.2783 19.5176 20.0921" stroke="#70B0FF" stroke-width="0.5" stroke-linecap="round"/>
</g>
<g filter="url(#filter2_f_18590_1754)">
<path d="M13.2463 12.0254C11.9061 10.8116 9.99424 10.1238 7.20253 11.2162C3.7129 12.5817 3.38421 17.0576 4.85088 19.384C6.31755 21.7105 10.6164 23.3289 14.0555 19.384C16.8068 16.2282 18.6409 13.8208 19.2141 13.0116C20.1245 11.781 22.724 9.66356 25.8394 11.0392C29.7336 12.7587 29.2952 17.6612 28.0141 19.384C26.5474 21.3564 23.0071 23.2783 19.8716 20.0921" stroke="url(#paint1_linear_18590_1754)" stroke-width="0.75" stroke-linecap="round"/>
</g>
<defs>
<filter id="filter0_i_18590_1754" x="2.20258" y="8.6002" width="28.5555" height="14.6997" filterUnits="userSpaceOnUse" color-interpolation-filters="sRGB">
<feFlood flood-opacity="0" result="BackgroundImageFix"/>
<feBlend mode="normal" in="SourceGraphic" in2="BackgroundImageFix" result="shape"/>
<feColorMatrix in="SourceAlpha" type="matrix" values="0 0 0 0 0 0 0 0 0 0 0 0 0 0 0 0 0 0 127 0" result="hardAlpha"/>
<feOffset dx="0.6" dy="-0.6"/>
<feGaussianBlur stdDeviation="0.75"/>
<feComposite in2="hardAlpha" operator="arithmetic" k2="-1" k3="1"/>
<feColorMatrix type="matrix" values="0 0 0 0 0.231373 0 0 0 0 0.376471 0 0 0 0 0.819608 0 0 0 1 0"/>
<feBlend mode="normal" in2="shape" result="effect1_innerShadow_18590_1754"/>
</filter>
<filter id="filter1_f_18590_1754" x="2.67466" y="9.59106" width="26.8956" height="13.1982" filterUnits="userSpaceOnUse" color-interpolation-filters="sRGB">
<feFlood flood-opacity="0" result="BackgroundImageFix"/>
<feBlend mode="normal" in="SourceGraphic" in2="BackgroundImageFix" result="shape"/>
<feGaussianBlur stdDeviation="0.375" result="effect1_foregroundBlur_18590_1754"/>
</filter>
<filter id="filter2_f_18590_1754" x="2.90369" y="9.46606" width="27.1456" height="13.4482" filterUnits="userSpaceOnUse" color-interpolation-filters="sRGB">
<feFlood flood-opacity="0" result="BackgroundImageFix"/>
<feBlend mode="normal" in="SourceGraphic" in2="BackgroundImageFix" result="shape"/>
<feGaussianBlur stdDeviation="0.375" result="effect1_foregroundBlur_18590_1754"/>
</filter>
<linearGradient id="paint0_linear_18590_1754" x1="9.40255" y1="15.3887" x2="32.3635" y2="15.3887" gradientUnits="userSpaceOnUse">
<stop stop-color="#3A8FEE"/>
<stop offset="1" stop-color="#5DB7FF"/>
</linearGradient>
<linearGradient id="paint1_linear_18590_1754" x1="27.8623" y1="10.5911" x2="22.2991" y2="17.2093" gradientUnits="userSpaceOnUse">
<stop stop-color="#79D8FF"/>
<stop offset="1" stop-color="#79D8FF" stop-opacity="0"/>
</linearGradient>
</defs>
</svg>

<svg width="100%" height="100%" viewBox="0 0 32 32" xmlns="http://www.w3.org/2000/svg"><g filter="url(#a)"><path fill="url(#b)" d="M23.485 9.21c-2.34-.12-4.42.88-5.78 2.53 0 0-1.53 1.98-1.53 1.97 0 0-1.93 2.53-1.92 2.53l-1.66 2.18-.13.17c-.95 1.27-2.63 1.98-4.4 1.46a3.92 3.92 0 0 1-2.69-2.88 3.985 3.985 0 0 1 3.87-4.9c1.21 0 2.11.51 2.73 1.05.66.58 1.67.49 2.21-.21.47-.61.41-1.49-.15-2.01-3.16-2.9-9.14-2.24-11.05 1.79-2.48 5.23 1.3 10.39 6.26 10.39 2.18 0 4.13-.97 5.42-2.53l.43-.56s1.09-1.43 1.09-1.42c0 0 1.93-2.53 1.92-2.53l1.69-2.21.12-.15c.87-1.18 2.37-1.85 4.02-1.53 1.46.29 2.67 1.43 3.03 2.88.66 2.63-1.32 5-3.85 5-1.19 0-2.09-.51-2.71-1.06a1.52 1.52 0 0 0-2.21.22c-.49.64-.4 1.53.2 2.07.93.83 2.52 1.84 4.72 1.84 4.2 0 7.55-3.69 6.98-8-.44-3.32-3.28-5.92-6.61-6.09"/></g><g filter="url(#c)"><path stroke="#70B0FF" stroke-linecap="round" stroke-width=".5" d="M12.892 12.025c-1.34-1.213-3.252-1.901-6.043-.809-3.49 1.366-3.819 5.842-2.352 8.168s5.765 3.945 9.205 0c2.75-3.156 4.585-5.563 5.158-6.372.91-1.231 3.51-3.348 6.625-1.973 3.895 1.72 3.456 6.622 2.175 8.345-1.467 1.972-5.007 3.894-8.142.708"/></g><g filter="url(#d)"><path stroke="url(#e)" stroke-linecap="round" stroke-width=".75" d="M13.246 12.025c-1.34-1.213-3.252-1.901-6.043-.809-3.49 1.366-3.819 5.842-2.352 8.168s5.765 3.945 9.205 0c2.75-3.156 4.585-5.563 5.158-6.372.91-1.231 3.51-3.348 6.625-1.973 3.895 1.72 3.456 6.622 2.175 8.345-1.467 1.972-5.007 3.894-8.142.708"/></g><defs><filter id="a" width="28.555" height="14.7" x="2.203" y="8.6" color-interpolation-filters="sRGB" filterUnits="userSpaceOnUse"><feFlood flood-opacity="0" result="BackgroundImageFix"/><feBlend in="SourceGraphic" in2="BackgroundImageFix" result="shape"/><feColorMatrix in="SourceAlpha" result="hardAlpha" values="0 0 0 0 0 0 0 0 0 0 0 0 0 0 0 0 0 0 127 0"/><feOffset dx=".6" dy="-.6"/><feGaussianBlur stdDeviation=".75"/><feComposite in2="hardAlpha" k2="-1" k3="1" operator="arithmetic"/><feColorMatrix values="0 0 0 0 0.231373 0 0 0 0 0.376471 0 0 0 0 0.819608 0 0 0 1 0"/><feBlend in2="shape" result="effect1_innerShadow_18590_1754"/></filter><filter id="c" width="26.896" height="13.198" x="2.675" y="9.591" color-interpolation-filters="sRGB" filterUnits="userSpaceOnUse"><feFlood flood-opacity="0" result="BackgroundImageFix"/><feBlend in="SourceGraphic" in2="BackgroundImageFix" result="shape"/><feGaussianBlur result="effect1_foregroundBlur_18590_1754" stdDeviation=".375"/></filter><filter id="d" width="27.146" height="13.448" x="2.904" y="9.466" color-interpolation-filters="sRGB" filterUnits="userSpaceOnUse"><feFlood flood-opacity="0" result="BackgroundImageFix"/><feBlend in="SourceGraphic" in2="BackgroundImageFix" result="shape"/><feGaussianBlur result="effect1_foregroundBlur_18590_1754" stdDeviation=".375"/></filter><linearGradient id="b" x1="9.403" x2="32.364" y1="15.389" y2="15.389" gradientUnits="userSpaceOnUse"><stop stop-color="#3A8FEE"/><stop offset="1" stop-color="#5DB7FF"/></linearGradient><linearGradient id="e" x1="27.862" x2="22.299" y1="10.591" y2="17.209" gradientUnits="userSpaceOnUse"><stop stop-color="#79D8FF"/><stop offset="1" stop-color="#79D8FF" stop-opacity="0"/></linearGradient></defs></svg>
